mastercard.svg

<?xml version="1.0" encoding="utf-8"?>
<!-- Generator: Adobe Illustrator 23.0.1, SVG Export Plug-In . SVG Version: 6.00 Build 0)  -->
<svg version="1.1"
	 id="svg3409" inkscape:version="0.91 r13725" sodipodi:docname="MasterCard 2016.svg" xmlns:cc="http://creativecommons.org/ns#" xmlns:dc="http://purl.org/dc/elements/1.1/" xmlns:inkscape="http://www.inkscape.org/namespaces/inkscape" xmlns:rdf="http://www.w3.org/1999/02/22-rdf-syntax-ns#" xmlns:sodipodi="http://sodipodi.sourceforge.net/DTD/sodipodi-0.dtd" xmlns:svg="http://www.w3.org/2000/svg"
	 xmlns="http://www.w3.org/2000/svg" xmlns:xlink="http://www.w3.org/1999/xlink" x="0px" y="0px" width="999.2px" height="776px"
	 viewBox="0 0 999.2 776" enable-background="new 0 0 999.2 776" xml:space="preserve">
<path id="XMLID_1775_" inkscape:connector-curvature="0" d="M181.1,774.3v-51.5c0-19.7-12-32.6-32.6-32.6
	c-10.3,0-21.5,3.4-29.2,14.6c-6-9.4-14.6-14.6-27.5-14.6c-8.6,0-17.2,2.6-24,12v-10.3h-18v82.4h18v-45.5c0-14.6,7.7-21.5,19.7-21.5
	s18,7.7,18,21.5v45.5h18v-45.5c0-14.6,8.6-21.5,19.7-21.5c12,0,18,7.7,18,21.5v45.5H181.1z M448.1,691.9h-29.2V667h-18v24.9h-16.3
	v16.3h16.3v37.8c0,18.9,7.7,30,28.3,30c7.7,0,16.3-2.6,22.3-6l-5.2-15.5c-5.2,3.4-11.2,4.3-15.5,4.3c-8.6,0-12-5.2-12-13.7v-36.9
	h29.2V691.9z M600.9,690.1c-10.3,0-17.2,5.2-21.5,12v-10.3h-18v82.4h18v-46.4c0-13.7,6-21.5,17.2-21.5c3.4,0,7.7,0.9,11.2,1.7
	l5.2-17.2C609.4,690.1,604.3,690.1,600.9,690.1L600.9,690.1z M370,698.7c-8.6-6-20.6-8.6-33.5-8.6c-20.6,0-34.3,10.3-34.3,26.6
	c0,13.7,10.3,21.5,28.3,24l8.6,0.9c9.4,1.7,14.6,4.3,14.6,8.6c0,6-6.9,10.3-18.9,10.3c-12,0-21.5-4.3-27.5-8.6l-8.6,13.7
	c9.4,6.9,22.3,10.3,35.2,10.3c24,0,37.8-11.2,37.8-26.6c0-14.6-11.2-22.3-28.3-24.9l-8.6-0.9c-7.7-0.9-13.7-2.6-13.7-7.7
	c0-6,6-9.4,15.5-9.4c10.3,0,20.6,4.3,25.8,6.9L370,698.7L370,698.7z M848.9,690.1c-10.3,0-17.2,5.2-21.5,12v-10.3h-18v82.4h18v-46.4
	c0-13.7,6-21.5,17.2-21.5c3.4,0,7.7,0.9,11.2,1.7L861,691C857.5,690.1,852.4,690.1,848.9,690.1L848.9,690.1z M618.9,733.1
	c0,24.9,17.2,42.9,43.8,42.9c12,0,20.6-2.6,29.2-9.4l-8.6-14.6c-6.9,5.2-13.7,7.7-21.5,7.7c-14.6,0-24.9-10.3-24.9-26.6
	c0-15.5,10.3-25.8,24.9-26.6c7.7,0,14.6,2.6,21.5,7.7l8.6-14.6c-8.6-6.9-17.2-9.4-29.2-9.4C636.1,690.1,618.9,708.2,618.9,733.1
	L618.9,733.1L618.9,733.1z M785.4,733.1v-41.2h-18v10.3c-6-7.7-14.6-12-25.8-12c-23.2,0-41.2,18-41.2,42.9c0,24.9,18,42.9,41.2,42.9
	c12,0,20.6-4.3,25.8-12v10.3h18V733.1L785.4,733.1z M719.3,733.1c0-14.6,9.4-26.6,24.9-26.6c14.6,0,24.9,11.2,24.9,26.6
	c0,14.6-10.3,26.6-24.9,26.6C728.8,758.8,719.3,747.6,719.3,733.1L719.3,733.1z M503.9,690.1c-24,0-41.2,17.2-41.2,42.9
	c0,25.8,17.2,42.9,42.1,42.9c12,0,24-3.4,33.5-11.2l-8.6-12.9c-6.9,5.2-15.5,8.6-24,8.6c-11.2,0-22.3-5.2-24.9-19.7h60.9
	c0-2.6,0-4.3,0-6.9C542.5,707.3,527,690.1,503.9,690.1L503.9,690.1L503.9,690.1z M503.9,705.6c11.2,0,18.9,6.9,20.6,19.7h-42.9
	C483.3,714.2,491,705.6,503.9,705.6L503.9,705.6z M951.1,733.1v-73.8h-18v42.9c-6-7.7-14.6-12-25.8-12c-23.2,0-41.2,18-41.2,42.9
	c0,24.9,18,42.9,41.2,42.9c12,0,20.6-4.3,25.8-12v10.3h18V733.1L951.1,733.1z M885,733.1c0-14.6,9.4-26.6,24.9-26.6
	c14.6,0,24.9,11.2,24.9,26.6c0,14.6-10.3,26.6-24.9,26.6C894.4,758.8,885,747.6,885,733.1L885,733.1z M282.4,733.1v-41.2h-18v10.3
	c-6-7.7-14.6-12-25.8-12c-23.2,0-41.2,18-41.2,42.9c0,24.9,18,42.9,41.2,42.9c12,0,20.6-4.3,25.8-12v10.3h18V733.1L282.4,733.1z
	 M215.5,733.1c0-14.6,9.4-26.6,24.9-26.6c14.6,0,24.9,11.2,24.9,26.6c0,14.6-10.3,26.6-24.9,26.6
	C224.9,758.8,215.5,747.6,215.5,733.1z"/>
<g>
	<rect id="rect19" x="364" y="66.1" fill="#FF5A00" width="270.4" height="485.8"/>
	<path id="XMLID_330_" inkscape:connector-curvature="0" fill="#EB001B" d="M382,309c0-98.7,46.4-186.3,117.6-242.9
		C447.2,24.9,381.1,0,309,0C138.2,0,0,138.2,0,309s138.2,309,309,309c72.1,0,138.2-24.9,190.6-66.1C428.3,496.1,382,407.7,382,309z"
		/>
	<path id="path22" inkscape:connector-curvature="0" fill="#F79E1B" d="M999.2,309c0,170.8-138.2,309-309,309
		c-72.1,0-138.2-24.9-190.6-66.1c72.1-56.7,117.6-144.2,117.6-242.9S570.8,122.7,499.6,66.1C551.9,24.9,618,0,690.1,0
		C861,0,999.2,139.1,999.2,309z"/>
</g>
</svg>

<svg width="1000" height="776" viewBox="0 0 1000 776" fill="none" xmlns="http://www.w3.org/2000/svg">
<g clip-path="url(#clip0_2_77)">
<path d="M181.1 774.3V722.8C181.1 703.1 169.1 690.2 148.5 690.2C138.2 690.2 127 693.6 119.3 704.8C113.3 695.4 104.7 690.2 91.8001 690.2C83.2001 690.2 74.6001 692.8 67.8001 702.2V691.9H49.8V774.3H67.8001V728.8C67.8001 714.2 75.5 707.3 87.5 707.3C99.5 707.3 105.5 715 105.5 728.8V774.3H123.5V728.8C123.5 714.2 132.1 707.3 143.2 707.3C155.2 707.3 161.2 715 161.2 728.8V774.3H181.1ZM448.1 691.9H418.9V667H400.9V691.9H384.6V708.2H400.9V746C400.9 764.9 408.6 776 429.2 776C436.9 776 445.5 773.4 451.5 770L446.3 754.5C441.1 757.9 435.1 758.8 430.8 758.8C422.2 758.8 418.8 753.6 418.8 745.1V708.2H448V691.9H448.1ZM600.9 690.1C590.6 690.1 583.7 695.3 579.4 702.1V691.8H561.4V774.2H579.4V727.8C579.4 714.1 585.4 706.3 596.6 706.3C600 706.3 604.3 707.2 607.8 708L613 690.8C609.4 690.1 604.3 690.1 600.9 690.1ZM370 698.7C361.4 692.7 349.4 690.1 336.5 690.1C315.9 690.1 302.2 700.4 302.2 716.7C302.2 730.4 312.5 738.2 330.5 740.7L339.1 741.6C348.5 743.3 353.7 745.9 353.7 750.2C353.7 756.2 346.8 760.5 334.8 760.5C322.8 760.5 313.3 756.2 307.3 751.9L298.7 765.6C308.1 772.5 321 775.9 333.9 775.9C357.9 775.9 371.7 764.7 371.7 749.3C371.7 734.7 360.5 727 343.4 724.4L334.8 723.5C327.1 722.6 321.1 720.9 321.1 715.8C321.1 709.8 327.1 706.4 336.6 706.4C346.9 706.4 357.2 710.7 362.4 713.3L370 698.7ZM848.9 690.1C838.6 690.1 831.7 695.3 827.4 702.1V691.8H809.4V774.2H827.4V727.8C827.4 714.1 833.4 706.3 844.6 706.3C848 706.3 852.3 707.2 855.8 708L861 691C857.5 690.1 852.4 690.1 848.9 690.1ZM618.9 733.1C618.9 758 636.1 776 662.7 776C674.7 776 683.3 773.4 691.9 766.6L683.3 752C676.4 757.2 669.6 759.7 661.8 759.7C647.2 759.7 636.9 749.4 636.9 733.1C636.9 717.6 647.2 707.3 661.8 706.5C669.5 706.5 676.4 709.1 683.3 714.2L691.9 699.6C683.3 692.7 674.7 690.2 662.7 690.2C636.1 690.1 618.9 708.2 618.9 733.1ZM785.4 733.1V691.9H767.4V702.2C761.4 694.5 752.8 690.2 741.6 690.2C718.4 690.2 700.4 708.2 700.4 733.1C700.4 758 718.4 776 741.6 776C753.6 776 762.2 771.7 767.4 764V774.3H785.4V733.1ZM719.3 733.1C719.3 718.5 728.7 706.5 744.2 706.5C758.8 706.5 769.1 717.7 769.1 733.1C769.1 747.7 758.8 759.7 744.2 759.7C728.8 758.8 719.3 747.6 719.3 733.1ZM503.9 690.1C479.9 690.1 462.7 707.3 462.7 733C462.7 758.8 479.9 775.9 504.8 775.9C516.8 775.9 528.8 772.5 538.3 764.7L529.7 751.8C522.8 757 514.2 760.4 505.7 760.4C494.5 760.4 483.4 755.2 480.8 740.7H541.7C541.7 738.1 541.7 736.4 541.7 733.8C542.5 707.3 527 690.1 503.9 690.1ZM503.9 705.6C515.1 705.6 522.8 712.5 524.5 725.3H481.6C483.3 714.2 491 705.6 503.9 705.6ZM951.1 733.1V659.3H933.1V702.2C927.1 694.5 918.5 690.2 907.3 690.2C884.1 690.2 866.1 708.2 866.1 733.1C866.1 758 884.1 776 907.3 776C919.3 776 927.9 771.7 933.1 764V774.3H951.1V733.1ZM885 733.1C885 718.5 894.4 706.5 909.9 706.5C924.5 706.5 934.8 717.7 934.8 733.1C934.8 747.7 924.5 759.7 909.9 759.7C894.4 758.8 885 747.6 885 733.1ZM282.4 733.1V691.9H264.4V702.2C258.4 694.5 249.8 690.2 238.6 690.2C215.4 690.2 197.4 708.2 197.4 733.1C197.4 758 215.4 776 238.6 776C250.6 776 259.2 771.7 264.4 764V774.3H282.4V733.1ZM215.5 733.1C215.5 718.5 224.9 706.5 240.4 706.5C255 706.5 265.3 717.7 265.3 733.1C265.3 747.7 255 759.7 240.4 759.7C224.9 758.8 215.5 747.6 215.5 733.1Z" fill="white"/>
<path d="M634.4 66.1H364V551.9H634.4V66.1Z" fill="#FF5A00"/>
<path d="M382 309C382 210.3 428.4 122.7 499.6 66.1C447.2 24.9 381.1 0 309 0C138.2 0 0 138.2 0 309C0 479.8 138.2 618 309 618C381.1 618 447.2 593.1 499.6 551.9C428.3 496.1 382 407.7 382 309Z" fill="#EB001B"/>
<path d="M999.2 309C999.2 479.8 861 618 690.2 618C618.1 618 552 593.1 499.6 551.9C571.7 495.2 617.2 407.7 617.2 309C617.2 210.3 570.8 122.7 499.6 66.1C551.9 24.9 618 0 690.1 0C861 0 999.2 139.1 999.2 309Z" fill="#F79E1B"/>
</g>
<defs>
<clipPath id="clip0_2_77">
<rect width="999.2" height="776" fill="white"/>
</clipPath>
</defs>
</svg>
